static/images/flexible.svg

<svg height="101" viewBox="0 0 100 101" width="100" xmlns="http://www.w3.org/2000/svg" xmlns:xlink="http://www.w3.org/1999/xlink"><defs><circle id="a" cx="35.833333" cy="35.833333" r="35.833333"/><filter id="b" height="172.6%" width="172.6%" x="-36.3%" y="-30.7%"><feOffset dx="0" dy="4" in="SourceAlpha" result="shadowOffsetOuter1"/><feGaussianBlur in="shadowOffsetOuter1" result="shadowBlurOuter1" stdDeviation="8"/><feColorMatrix in="shadowBlurOuter1" type="matrix" values="0 0 0 0 0.254901961   0 0 0 0 0.458823529   0 0 0 0 0.647058824  0 0 0 0.24 0"/></filter><linearGradient id="c" x1="0%" x2="149.460671%" y1="0%" y2="71.875%"><stop offset="0" stop-color="#00eaf8"/><stop offset="1" stop-color="#6d42ef"/></linearGradient></defs><g fill="none" fill-rule="nonzero" transform="translate(15 12)"><g><use fill="#000" filter="url(#b)" xlink:href="#a"/><use fill="#fff" fill-rule="evenodd" xlink:href="#a"/></g><path d="m12.9995718 21.1151667.0460421-.0813673c.5677703-1.2417763 1.767527-2.0682427 3.1219618-2.1470957 1.3683824-.079665 2.6667693.6170268 3.367219 1.8067912.7004498 1.1897644.686317 2.6744707-.0229791 3.8273351-.805393 1.4122052-1.0085098 3.0941078-.5628174 4.6603923.4456924 1.5662846 1.5019979 2.88272 2.9391189 3.6544022 1.5429792.8631452 3.3724878 1.0374402 5.0480911.4809252.422418-.140297.8774794.0917799 1.0164081.5183581s-.0908848.8861213-.5133028 1.0264182c-2.1016041.6980019-4.3962421.4793947-6.3193076-.5965097-1.8103865-.97194-3.1524375-2.6444896-3.7186959-4.634476s-.3081956-4.1268672.7287399-5.9441761c.4058772-.6601807.4138113-1.4937001.0205764-2.161638-.393235-.6679379-1.1221539-1.0590631-1.8903686-1.0143389s-1.4477949.51785-1.7624143 1.226998l-.0357094.0709597-.065881.1164162c-2.0985662 3.6773185-6.80747045 4.7731245-10.62256595 2.632734-1.5686727-.8668156-2.78955673-2.2581179-3.45300779-3.9349992-.16498618-.4170047.03601843-.8901188.44895636-1.0567298.41293793-.1666111.88143799.0363731 1.04642416.4533779.52465377 1.3260693 1.49012273 2.4263042 2.73514452 3.1142961 3.07695232 1.7262532 6.8069002.8582594 8.4483675-2.0180735zm18.579952 10.4689796c-.2309723.3837291-.7262525.5057189-1.1062393.2724718s-.5007868-.7334051-.2698145-1.1171341l.1558158-.2583433c.8042611-1.417499 1.0066012-3.1032298.5609921-4.6737217s-1.5012788-2.8922114-2.9354227-3.6691966c-.9511612-.5303383-2.0218602-.8035469-3.0965183-.7933464-2.0616609.0502743-3.775948-1.5914059-3.8358451-3.6875097-.0109797-.9905464.3681772-1.9449209 1.0540482-2.6531405.6858709-.7082195 1.6222634-1.1122607 2.6086232-1.1232682 1.1095408-.0047875 2.1984392-.3033276 3.1638211-.8691868 1.4040707-.8074202 2.4256142-2.1533805 2.8327789-3.73239909.4071646-1.57901856.1654186-3.25717776-.6653424-4.6453101-1.7967753-2.92251301-5.5681079-3.87409944-8.5204994-2.14526941-1.4041281.80719917-2.4254329 2.15340043-2.8317483 3.73258103-.4063155 1.57918059-.1631204 3.25717144.6750197 4.65372567.5085958.8507537.6565956 1.8724624.4106187 2.8346834-.245977.9622211-.8652143 1.7839152-1.71561 2.2783308-1.6475482.9656414-3.8695502.3574855-4.9976207-1.1130218-.0653989-.0801321-.1878925-.2255112-.3533573-.4140025-.2763194-.314773-.5679985-.6293545-.8600034-.920999-.2072241-.2069683-.4068287-.3944149-.5951077-.557442-.2691384-.2330417-.507005-.4088327-.7015869-.5173939-2.96061782-1.6767217-6.70552769-.6523087-8.41288079 2.2856378-.24624586.450501-.43354478.9313744-.5572026 1.4305683-.10791294.4356334-.54510025.7004418-.97648519.5914661-.43138495-.1089757-.69361082-.5504687-.58569788-.9861021.15747491-.63571.39599504-1.2480893.72003909-1.8403405 2.16168813-3.7204494 6.87427497-5.0095687 10.59537817-2.9021329.3001925.1674537.6211737.4046692.966625.7037886.2194237.1899947.44647.4032116.6792869.6357411.3194902.3190958.6345359.6588787.9326421.9984703.1042684.1187787.1991457.2292485.2829696.3287332.0510599.0605995.087636.104748.1231217.1488032.6765171.8815224 2.0279128 1.2513956 2.9339797.7203482.4776854-.277727.8245309-.7379721.9623068-1.2769287.137776-.5389567.0548787-1.1112334-.2292762-1.5865559-1.0627369-1.77078667-1.3713656-3.90025488-.8557277-5.90432711.515638-2.00407223 1.8117334-3.71248011 3.5880906-4.73363509 3.6998508-2.16655676 8.4348971-.97180515 10.6958428 2.70580615 1.0604641 1.77180365 1.3671956 3.90108091.8505781 5.90456682-.5166176 2.00348593-1.8127695 3.71126353-3.5884982 4.73237603-1.2031551.7052704-2.5684237 1.079582-3.9541017 1.0855422-.5537958.0061907-1.0824702.2343069-1.4697036.634158s-.6013002.9386779-.5953872 1.4835249c.0339903 1.1869876 1.0114778 2.1230746 2.1988425 2.0942077 1.3638573-.0130564 2.7079263.3299076 3.8933796.9909479 1.8088085.9798845 3.1482604 2.6569048 3.7136569 4.649572s.3086638 4.1315514-.7223804 5.9482058z" fill="url(#c)" transform="translate(16.922969 18.428571)"/></g></svg>

<?xml version="1.0" encoding="UTF-8"?>
<svg width="100px" height="101px" viewBox="0 0 100 101" version="1.1" xmlns="http://www.w3.org/2000/svg" xmlns:xlink="http://www.w3.org/1999/xlink">
    <!-- Generator: Sketch 46.2 (44496) - http://www.bohemiancoding.com/sketch -->
    <title>ic/flexible</title>
    <desc>Created with Sketch.</desc>
    <defs>
        <circle id="path-1" cx="35.8333333" cy="35.8333333" r="35.8333333"></circle>
        <filter x="-36.3%" y="-30.7%" width="172.6%" height="172.6%" filterUnits="objectBoundingBox" id="filter-2">
            <feOffset dx="0" dy="4" in="SourceAlpha" result="shadowOffsetOuter1"></feOffset>
            <feGaussianBlur stdDeviation="8" in="shadowOffsetOuter1" result="shadowBlurOuter1"></feGaussianBlur>
            <feColorMatrix values="0 0 0 0 0.254901961   0 0 0 0 0.458823529   0 0 0 0 0.647058824  0 0 0 0.24 0" type="matrix" in="shadowBlurOuter1"></feColorMatrix>
        </filter>
        <linearGradient x1="0%" y1="0%" x2="149.460671%" y2="71.875%" id="linearGradient-3">
            <stop stop-color="#00EAF8" offset="0%"></stop>
            <stop stop-color="#6D42EF" offset="100%"></stop>
        </linearGradient>
    </defs>
    <g id="Page-1" stroke="none" stroke-width="1" fill="none" fill-rule="evenodd">
        <g id="Rakam-UI-Screen-10/10/2017-event" transform="translate(-208.000000, -1321.000000)">
            <g id="Advanced-BI" transform="translate(148.000000, 744.000000)">
                <g id="icons">
                    <g id="4" transform="translate(0.000000, 574.000000)">
                        <g id="ic/flexible" transform="translate(60.000000, 0.000000)">
                            <g id="Group" transform="translate(15.000000, 15.000000)">
                                <g id="Oval" fill-rule="nonzero">
                                    <use fill="black" fill-opacity="1" filter="url(#filter-2)" xlink:href="#path-1"></use>
                                    <use fill="#FFFFFF" fill-rule="evenodd" xlink:href="#path-1"></use>
                                </g>
                                <g id="colored_ripple-86" transform="translate(16.922969, 18.428571)" fill-rule="nonzero" fill="url(#linearGradient-3)">
                                    <path d="M12.9995718,21.1151667 L13.0456139,21.0337994 C13.6133842,19.7920231 14.8131409,18.9655567 16.1675757,18.8867037 C17.5359581,18.8070387 18.834345,19.5037305 19.5347947,20.6934949 C20.2352445,21.8832593 20.2211117,23.3679656 19.5118156,24.52083 C18.7064226,25.9330352 18.5033058,27.6149378 18.9489982,29.1812223 C19.3946906,30.7475069 20.4509961,32.0639423 21.8881171,32.8356245 C23.4310963,33.6987697 25.2606049,33.8730647 26.9362082,33.3165497 C27.3586262,33.1762527 27.8136876,33.4083296 27.9526163,33.8349078 C28.091545,34.261486 27.8617315,34.7210291 27.4393135,34.861326 C25.3377094,35.5593279 23.0430714,35.3407207 21.1200059,34.2648163 C19.3096194,33.2928763 17.9675684,31.6203267 17.40131,29.6303403 C16.8350516,27.6403539 17.0931144,25.5034731 18.1300499,23.6861642 C18.5359271,23.0259835 18.5438612,22.1924641 18.1506263,21.5245262 C17.7573913,20.8565883 17.0284724,20.4654631 16.2602577,20.5101873 C15.492043,20.5549115 14.8124628,21.0280373 14.4978434,21.7371853 L14.462134,21.808145 L14.396253,21.9245612 C12.2976868,25.6018797 7.58878255,26.6976857 3.77368705,24.5572952 C2.20501435,23.6904796 0.984130321,22.2991773 0.32067926,20.622296 C0.155693083,20.2052913 0.356697694,19.7321772 0.769635623,19.5655662 C1.18257355,19.3989551 1.65107361,19.6019393 1.81605978,20.0189441 C2.34071355,21.3450134 3.30618251,22.4452483 4.5512043,23.1332402 C7.62815662,24.8594934 11.3581045,23.9914996 12.9995718,21.1151667 Z M31.5795238,31.5841463 C31.3485515,31.9678754 30.8532713,32.0898652 30.4732845,31.8566181 C30.0932977,31.623371 29.9724977,31.123213 30.20347,30.739484 L30.3592858,30.4811407 C31.1635469,29.0636417 31.365887,27.3779109 30.9202779,25.807419 C30.4746688,24.2369271 29.4189991,22.9152076 27.9848552,22.1382224 C27.033694,21.6078841 25.962995,21.3346755 24.8883369,21.344876 C22.826676,21.3951503 21.1123889,19.7534701 21.0524918,17.6573663 C21.0415121,16.6668199 21.420669,15.7124454 22.10654,15.0042258 C22.7924109,14.2960063 23.7288034,13.8919651 24.7151632,13.8809576 C25.824704,13.8761701 26.9136024,13.57763 27.8789843,13.0117708 C29.283055,12.2043506 30.3045985,10.8583903 30.7117632,9.27937171 C31.1189278,7.70035315 30.8771818,6.02219395 30.0464208,4.63406161 C28.2496455,1.7115486 24.4783129,0.759962174 21.5259214,2.4887922 C20.1217933,3.29599137 19.1004885,4.64219263 18.6941731,6.22137323 C18.2878576,7.80055382 18.5310527,9.47854467 19.3691928,10.8750989 C19.8777886,11.7258526 20.0257884,12.7475613 19.7798115,13.7097823 C19.5338345,14.6720034 18.9145972,15.4936975 18.0642015,15.9881131 C16.4166533,16.9537545 14.1946513,16.3455986 13.0665808,14.8750913 C13.0011819,14.7949592 12.8786883,14.6495801 12.7132235,14.4610888 C12.4369041,14.1463158 12.145225,13.8317343 11.8532201,13.5400898 C11.645996,13.3331215 11.4463914,13.1456749 11.2581124,12.9826478 C10.988974,12.7496061 10.7511074,12.5738151 10.5565255,12.4652539 C7.59590768,10.7885322 3.85099781,11.8129452 2.14364471,14.7508917 C1.89739885,15.2013927 1.71009993,15.6822661 1.58644211,16.18146 C1.47852917,16.6170934 1.04134186,16.8819018 0.609956916,16.7729261 C0.178571973,16.6639504 -0.0836538961,16.2224574 0.0242590446,15.786824 C0.18173395,15.151114 0.420254081,14.5387347 0.744298127,13.9464835 C2.90598626,10.2260341 7.6185731,8.9369148 11.3396763,11.0443506 C11.6398688,11.2118043 11.96085,11.4490198 12.3063013,11.7481392 C12.525725,11.9381339 12.7527713,12.1513508 12.9855882,12.3838803 C13.3050784,12.7029761 13.6201241,13.042759 13.9182303,13.3823506 C14.0224987,13.5011293 14.117376,13.6115991 14.2011999,13.7110838 C14.2522598,13.7716833 14.2888359,13.8158318 14.3243216,13.859887 C15.0008387,14.7414094 16.3522344,15.1112826 17.2583013,14.5802352 C17.7359867,14.3025082 18.0828322,13.8422631 18.2206081,13.3033065 C18.3583841,12.7643498 18.2754868,12.1920731 17.9913319,11.7167506 C16.928595,9.94596393 16.6199663,7.81649572 17.1356042,5.81242349 C17.6512422,3.80835126 18.9473376,2.09994338 20.7236948,1.0787884 C24.4235456,-1.08776836 29.1585919,0.106983246 31.4195376,3.78459455 C32.4800017,5.5563982 32.7867332,7.68567546 32.2701157,9.68916137 C31.7534981,11.6926473 30.4573462,13.4004249 28.6816175,14.4215374 C27.4784624,15.1268078 26.1131938,15.5011194 24.7275158,15.5070796 C24.17372,15.5132703 23.6450456,15.7413865 23.2578122,16.1412376 C22.8705788,16.5410887 22.656512,17.0799155 22.662425,17.6247625 C22.6964153,18.8117501 23.6739028,19.7478371 24.8612675,19.7189702 C26.2251248,19.7059138 27.5691938,20.0488778 28.7546471,20.7099181 C30.5634556,21.6898026 31.9029075,23.3668229 32.468304,25.3594901 C33.0337005,27.3521573 32.7769678,29.4910415 31.7459236,31.3076959 L31.5795238,31.5841463 Z" id="Combined-Shape"></path>
                                </g>
                            </g>
                        </g>
                    </g>
                </g>
            </g>
        </g>
    </g>
</svg>
